X:5
T: Coleman's March
M:2/4
L:1/8
Q:116
K:D
DE |F2  EF | G2  FG |A  A/2B/2A/2G/2 F | E3 F/2G/2 |  !
Ad c>A |  B/2c/2B/2A/2 F/2E/2D/2F/2 | E E/2F/2 G/2F/2 E | D2:|] !
D/2F/2A/2c/2 | d2 de | c3 A | B B/2c/2d/2c/2 B | A2 F>G | !
Ad c>A | B/2c/2B/2A/2  F/2E/2D/2F/2 | E E/2F/2 G/2F/2 E | D2 :|
